packages/foundations/assets/icons/functional/images/navigation/magnifying_glass_12.svg

<svg width="12" height="12" viewBox="0 0 12 12" fill="none" xmlns="http://www.w3.org/2000/svg">
<g clip-path="url(#clip0_232_343)">
<path fill-rule="evenodd" clip-rule="evenodd" d="M5.40001 1.20001C7.72196 1.20001 9.60001 3.07806 9.60001 5.40001C9.60001 6.35611 9.27806 7.20977 8.77074 7.91221L10.6244 9.76587C10.7415 9.88294 10.8 10.039 10.8 10.1951C10.8 10.526 10.5374 10.8 10.2171 10.8C10.0683 10.8 9.9122 10.7415 9.76587 10.6244L7.91221 8.77074C7.20977 9.29757 6.3366 9.60001 5.40001 9.60001C3.07806 9.60001 1.20001 7.72196 1.20001 5.40001C1.20001 3.07806 3.07806 1.20001 5.40001 1.20001ZM5.39513 2.40977C3.7366 2.40977 2.40977 3.7366 2.40977 5.39513C2.40977 7.05367 3.7366 8.40001 5.39513 8.40001C7.05367 8.40001 8.40001 7.05367 8.40001 5.39513C8.40001 3.7366 7.05367 2.40977 5.39513 2.40977Z" fill="#1A1C1F"/>
</g>
<defs>
<clipPath id="clip0_232_343">
<rect width="12" height="12" fill="white"/>
</clipPath>
</defs>
</svg>

<svg xmlns="http://www.w3.org/2000/svg" width="12" height="12" fill="none"><g clip-path="url(#a)"><path fill="#1A1C1F" fill-rule="evenodd" d="M5.4 1.2c2.322 0 4.2 1.878 4.2 4.2a4.26 4.26 0 0 1-.83 2.512l1.854 1.854a.6.6 0 0 1 .176.43c0 .33-.263.604-.583.604a.73.73 0 0 1-.451-.176L7.912 8.771A4.17 4.17 0 0 1 5.4 9.6a4.197 4.197 0 0 1-4.2-4.2c0-2.322 1.878-4.2 4.2-4.2m-.005 1.21A2.973 2.973 0 0 0 2.41 5.395 2.99 2.99 0 0 0 5.395 8.4 3.006 3.006 0 0 0 8.4 5.395 2.99 2.99 0 0 0 5.395 2.41" clip-rule="evenodd"/></g><defs><clipPath id="a"><path fill="#fff" d="M0 0h12v12H0z"/></clipPath></defs></svg>
